X: 30986
T: P&O, The
R: polka
M: 2/4
K: Eminor
|:[B,B]E EF|GA/G/ EG|FD DE|FD ED|
[B,B]E EF|GA/G/ FA|GB Ad|1 e2 e2:|2 eb ba||
|:ge fd|ed BA|Fd de|fg/f/ ef|
ge fd|ed BA|GB Ad|1 eb ba:|2 e2 e2||

